X:1
T:The King O' Spain's Daughter
M:3/4
L:1/4
K:G
 D| G2 G| E3/2 F/2- G| A3/2 G/2- A| D2c/2-c/2| B3/2- A/2- G| G3/2 A/2 B|\
 A2 G| G B d| d c B| A B c| B A G| F- D D| D E F| G2||
